dhis-2/dhis-support/dhis-support-system/src/main/resources/SVGs/pregnant_2426w_outline.svg

<svg width="48" height="48" viewBox="0 0 48 48" fill="none" xmlns="http://www.w3.org/2000/svg">
<path fill-rule="evenodd" clip-rule="evenodd" d="M24.0017 4.00977C16.1188 4.00977 9.72786 10.4009 9.72786 18.2826C9.72786 26.1655 16.1188 32.5564 24.0017 32.5564C31.8846 32.5564 38.2755 26.1655 38.2745 18.2826C38.2745 10.4007 31.8846 4.00977 24.0017 4.00977ZM23.9977 4.51756C31.5946 4.51646 37.7535 10.6779 37.7535 18.2764C37.7535 25.8763 31.5946 32.0372 23.9977 32.0362C16.4018 32.0362 10.2439 25.8763 10.2439 18.2764C10.2439 10.6785 16.4018 4.51756 23.9977 4.51756ZM22.9137 6.66983C22.7277 6.67113 22.5357 6.77423 22.4487 7.02333C22.1327 7.72532 21.5887 8.21901 21.3497 9.2128C21.0457 10.6449 23.5027 10.7669 24.2697 10.7639C26.4827 10.8449 27.2796 12.2229 25.0057 12.4279C23.1187 12.6049 21.1777 12.6519 20.7967 16.5348C20.7477 17.1028 21.0097 18.1108 21.4667 19.3928C21.6177 20.2328 21.3677 21.2008 20.8647 22.2497C20.6087 22.2197 20.4197 22.1277 20.3727 21.9157C20.4167 21.0108 20.5997 20.2458 20.2397 18.9358C19.8857 17.6648 19.0197 17.0598 18.1408 16.9038C16.3778 16.5378 14.8138 16.2068 13.4018 16.6758C11.9138 17.2338 12.3898 19.4388 13.6698 19.4668L15.2378 19.5098C16.3248 19.5318 16.9138 20.0098 16.3498 21.5367L15.5838 23.7577C14.9578 25.6687 17.0648 27.7587 19.8257 27.9997C22.6177 27.9347 24.2307 26.6877 26.4057 26.0077C28.4906 24.8537 28.1046 24.0347 28.0976 23.3007C27.7506 22.2827 27.7036 21.9127 26.9486 20.7598C26.6536 20.4478 26.5167 20.3608 26.1267 20.1018C25.1777 19.0508 26.7156 18.3838 27.8746 17.0098C28.4766 16.1558 27.4566 15.1538 26.2727 15.5018C25.2737 15.8278 24.7497 16.4368 23.7317 17.4898C23.1517 18.1288 22.3667 19.6228 23.4427 20.8828C23.7437 21.4617 23.3377 21.7367 22.3107 22.0657C21.9737 22.1497 21.7317 22.1667 21.4667 22.2007C22.0007 21.3107 22.1327 20.4018 22.0137 19.4818C21.7857 18.5148 21.3897 17.5888 21.3727 16.5678C21.6997 12.6589 24.0467 13.1969 25.9037 12.8959C26.7856 12.8659 28.6786 10.7699 24.6207 10.0329C23.3477 9.80519 22.0897 9.89859 22.3047 9.0604C22.4877 8.33081 22.9827 7.87322 23.3027 7.30852C23.5197 6.94903 23.2237 6.66773 22.9137 6.66983ZM31.8316 16.5898V16.5918C30.9316 16.5918 30.0336 16.9358 29.3476 17.6228C27.9756 18.9958 27.9736 21.2258 29.3476 22.5977C30.7206 23.9697 32.9496 23.9647 34.3216 22.5897C35.6935 21.2158 35.6895 18.9868 34.3156 17.6148C33.6296 16.9288 32.7316 16.5888 31.8316 16.5898ZM7.81389 35.0956C7.30239 35.0956 6.8444 35.2066 6.4408 35.4256C6.03721 35.6416 5.72401 35.9396 5.50141 36.3216C5.28212 36.7046 5.17322 37.1286 5.17322 37.5915H6.6869C6.6869 37.2086 6.785 36.9006 6.9799 36.6676C7.17819 36.4306 7.44749 36.3116 7.78849 36.3116C8.10508 36.3116 8.34838 36.4106 8.51888 36.6046C8.68937 36.7966 8.77477 37.0606 8.77477 37.3975C8.77477 37.6445 8.69217 37.9065 8.52868 38.1815C8.36858 38.4565 8.12008 38.7765 7.78259 39.1445L5.32362 41.7655V42.8005H10.5324V41.5835H7.26699L8.99347 39.7615C9.46676 39.2425 9.80056 38.7895 9.99546 38.3995C10.1904 38.0105 10.2884 37.6275 10.2884 37.2515C10.2884 36.5656 10.0714 36.0356 9.63606 35.6596C9.20467 35.2836 8.59658 35.0956 7.81389 35.0956ZM24.2437 35.0956C23.7327 35.0956 23.2767 35.2066 22.8727 35.4256C22.4687 35.6416 22.1557 35.9396 21.9337 36.3216C21.7137 36.7046 21.6037 37.1286 21.6037 37.5915H23.1167C23.1167 37.2086 23.2147 36.9006 23.4097 36.6676C23.6077 36.4306 23.8777 36.3116 24.2187 36.3116C24.5347 36.3116 24.7787 36.4106 24.9487 36.6046C25.1197 36.7966 25.2047 37.0606 25.2047 37.3975C25.2047 37.6445 25.1237 37.9065 24.9607 38.1815C24.8007 38.4565 24.5497 38.7765 24.2127 39.1445L21.7557 41.7655V42.8005H26.9646V41.5835H23.6967L25.4237 39.7615C25.8967 39.2425 26.2307 38.7895 26.4257 38.3995C26.6207 38.0105 26.7186 37.6275 26.7186 37.2515C26.7186 36.5656 26.5007 36.0356 26.0657 35.6596C25.6347 35.2836 25.0267 35.0956 24.2437 35.0956ZM31.7336 35.1226C30.9646 35.1266 30.2896 35.3016 29.7046 35.6496C29.1236 35.9946 28.6756 36.4816 28.3626 37.1146C28.0536 37.7445 27.8976 38.4715 27.8976 39.2965V39.8395C27.8976 40.7685 28.1436 41.5115 28.6346 42.0675C29.1286 42.6245 29.7756 42.9035 30.5756 42.9035C31.0696 42.9035 31.5126 42.7925 31.9016 42.5695C32.2956 42.3475 32.5976 42.0365 32.8106 41.6365C33.0256 41.2365 33.1326 40.7885 33.1326 40.2945C33.1326 39.5215 32.9386 38.8985 32.5486 38.4255C32.1586 37.9525 31.6336 37.7165 30.9726 37.7165C30.3566 37.7165 29.8466 37.9205 29.4426 38.3315C29.5266 37.7195 29.7746 37.2406 30.1886 36.8956C30.6066 36.5516 31.1576 36.3756 31.8396 36.3646H31.9836V35.1226H31.7336ZM14.4018 35.2006L11.2318 40.2045L11.3008 41.1555H14.4178V42.8005H15.9258V41.1555H16.7868V39.9385H15.9258V35.2006H14.4018ZM33.6966 35.2006L35.3825 42.8005H36.9585L38.1945 37.7165L39.4335 42.8005H41.0095L42.6944 35.2006H41.1345L40.1105 40.6065L38.8645 35.2006H37.5385L36.2845 40.5975L35.2575 35.2006H33.6966ZM14.4178 37.2576V39.9385H12.7358L14.3178 37.4295L14.4178 37.2576ZM30.5136 38.9275C30.8546 38.9275 31.1256 39.0545 31.3276 39.3085C31.5296 39.5625 31.6306 39.8955 31.6306 40.3105C31.6306 40.7175 31.5296 41.0485 31.3276 41.3065C31.1296 41.5605 30.8686 41.6875 30.5446 41.6875C30.1866 41.6875 29.9066 41.5465 29.7086 41.2655C29.5106 40.9795 29.4116 40.5845 29.4116 40.0795V39.6205C29.5056 39.4115 29.6526 39.2455 29.8516 39.1205C30.0496 38.9915 30.2696 38.9275 30.5136 38.9275ZM17.6578 38.9375V40.1535H20.5977V38.9375H17.6578Z" fill="#333333"/>
</svg>

<?xml version="1.0" encoding="UTF-8" standalone="no"?>
<!-- Created with Inkscape (http://www.inkscape.org/) -->
<svg id="svg8" xmlns:rdf="http://www.w3.org/1999/02/22-rdf-syntax-ns#" xmlns="http://www.w3.org/2000/svg" height="48" viewBox="0 0 12.7 12.7" width="48" version="1.1" xmlns:cc="http://creativecommons.org/ns#" xmlns:dc="http://purl.org/dc/elements/1.1/">
 <title id="title4753">UIO-icon</title>
 <metadata id="metadata5">
  <rdf:RDF>
   <cc:Work rdf:about="">
    <dc:format>image/svg+xml</dc:format>
    <dc:type rdf:resource="http://purl.org/dc/dcmitype/StillImage"/>
    <dc:title>UIO-icon</dc:title>
    <dc:creator>
     <cc:Agent>
      <dc:title>Joaquín Urbano</dc:title>
     </cc:Agent>
    </dc:creator>
    <dc:rights>
     <cc:Agent>
      <dc:title>GPL</dc:title>
     </cc:Agent>
    </dc:rights>
   </cc:Work>
  </rdf:RDF>
 </metadata>
 <path id="path837" d="m24.002 4.0098c-7.883 0-14.274 6.3912-14.274 14.273 0 7.883 6.391 14.274 14.274 14.274s14.274-6.391 14.273-14.274c0-7.882-6.39-14.273-14.273-14.273zm-0.004 0.5078c7.597-0.0011 13.756 6.1604 13.756 13.759 0 7.6-6.159 13.761-13.756 13.76-7.596 0-13.754-6.16-13.754-13.76 0-7.598 6.158-13.759 13.754-13.759zm-1.084 2.1523c-0.186 0.0013-0.378 0.1044-0.465 0.3535-0.316 0.702-0.86 1.1957-1.099 2.1895-0.304 1.4321 2.153 1.5541 2.92 1.5511 2.213 0.081 3.01 1.459 0.736 1.664-1.887 0.177-3.828 0.224-4.209 4.107-0.049 0.568 0.213 1.576 0.67 2.858 0.151 0.84-0.099 1.808-0.602 2.857-0.256-0.03-0.445-0.122-0.492-0.334 0.044-0.905 0.227-1.67-0.133-2.98-0.354-1.271-1.22-1.876-2.099-2.032-1.763-0.366-3.327-0.697-4.739-0.228-1.488 0.558-1.012 2.763 0.268 2.791l1.568 0.043c1.087 0.022 1.676 0.5 1.112 2.027l-0.766 2.221c-0.626 1.911 1.481 4.001 4.242 4.242 2.792-0.065 4.405-1.312 6.58-1.992 2.085-1.154 1.699-1.973 1.692-2.707-0.347-1.018-0.394-1.388-1.149-2.541-0.295-0.312-0.432-0.399-0.822-0.658-0.949-1.051 0.589-1.718 1.748-3.092 0.602-0.854-0.418-1.856-1.602-1.508-0.999 0.326-1.523 0.935-2.541 1.988-0.58 0.639-1.365 2.133-0.289 3.393 0.301 0.579-0.105 0.854-1.132 1.183-0.337 0.084-0.579 0.101-0.844 0.135 0.534-0.89 0.666-1.799 0.547-2.719-0.228-0.967-0.624-1.893-0.641-2.914 0.327-3.909 2.674-3.371 4.531-3.672 0.882-0.03 2.775-2.126-1.283-2.863-1.273-0.2277-2.531-0.1343-2.316-0.9725 0.183-0.7296 0.678-1.1872 0.998-1.7519 0.217-0.3595-0.079-0.6408-0.389-0.6387zm8.918 9.9201v0.002c-0.9 0-1.798 0.344-2.484 1.031-1.372 1.373-1.374 3.603 0 4.975 1.373 1.372 3.602 1.367 4.974-0.008 1.372-1.374 1.368-3.603-0.006-4.975-0.686-0.686-1.584-1.026-2.484-1.025zm-24.018 18.506c-0.5115 0-0.9695 0.111-1.3731 0.33-0.4036 0.216-0.7168 0.514-0.9394 0.896-0.2193 0.383-0.3282 0.807-0.3282 1.27h1.5137c0-0.383 0.0981-0.691 0.293-0.924 0.1983-0.237 0.4676-0.356 0.8086-0.356 0.3166 0 0.5599 0.099 0.7304 0.293 0.1705 0.192 0.2559 0.456 0.2559 0.793 0 0.247-0.0826 0.509-0.2461 0.784-0.1601 0.275-0.4086 0.595-0.7461 0.963l-2.459 2.621v1.035h5.2088v-1.217h-3.2654l1.7265-1.822c0.4733-0.519 0.8071-0.972 1.002-1.362 0.1949-0.389 0.2929-0.772 0.2929-1.148 0-0.686-0.217-1.216-0.6523-1.592-0.4314-0.376-1.0395-0.564-1.8222-0.564zm16.43 0c-0.511 0-0.967 0.111-1.371 0.33-0.404 0.216-0.717 0.514-0.939 0.896-0.22 0.383-0.33 0.807-0.33 1.27h1.513c0-0.383 0.098-0.691 0.293-0.924 0.198-0.237 0.468-0.356 0.809-0.356 0.316 0 0.56 0.099 0.73 0.293 0.171 0.192 0.256 0.456 0.256 0.793 0 0.247-0.081 0.509-0.244 0.784-0.16 0.275-0.411 0.595-0.748 0.963l-2.457 2.621v1.035h5.209v-1.217h-3.268l1.727-1.822c0.473-0.519 0.807-0.972 1.002-1.362 0.195-0.389 0.293-0.772 0.293-1.148 0-0.686-0.218-1.216-0.653-1.592-0.431-0.376-1.039-0.564-1.822-0.564zm7.49 0.027c-0.769 0.004-1.444 0.179-2.029 0.527-0.581 0.345-1.029 0.832-1.342 1.465-0.309 0.63-0.465 1.357-0.465 2.182v0.543c0 0.929 0.246 1.672 0.737 2.228 0.494 0.557 1.141 0.836 1.941 0.836 0.494 0 0.937-0.111 1.326-0.334 0.394-0.222 0.696-0.533 0.909-0.933 0.215-0.4 0.322-0.848 0.322-1.342 0-0.773-0.194-1.396-0.584-1.869s-0.915-0.709-1.576-0.709c-0.616 0-1.126 0.204-1.53 0.615 0.084-0.612 0.332-1.091 0.746-1.436 0.418-0.344 0.969-0.52 1.651-0.531h0.144v-1.242h-0.25zm-17.332 0.078l-3.17 5.004 0.069 0.951h3.117v1.645h1.508v-1.645h0.861v-1.217h-0.861v-4.738h-1.524zm19.295 0l1.686 7.6h1.576l1.236-5.084 1.239 5.084h1.576l1.685-7.6h-1.56l-1.024 5.406-1.246-5.406h-1.326l-1.254 5.397-1.027-5.397h-1.561zm-19.279 2.057v2.681h-1.682l1.582-2.509 0.1-0.172zm16.096 1.67c0.341 0 0.612 0.127 0.814 0.381s0.303 0.587 0.303 1.002c0 0.407-0.101 0.738-0.303 0.996-0.198 0.254-0.459 0.381-0.783 0.381-0.358 0-0.638-0.141-0.836-0.422-0.198-0.286-0.297-0.681-0.297-1.186v-0.459c0.094-0.209 0.241-0.375 0.44-0.5 0.198-0.129 0.418-0.193 0.662-0.193zm-12.856 0.01v1.216h2.94v-1.216h-2.94z" fill-rule="evenodd" transform="scale(.26458)" stroke-width=".99998" fill="#333"/>
</svg>
